X:1
T:Soldier's Joy
R:reel
M:4/4
L:1/8
K:D
Q:1/4=120
|:AA|"D"AFDF AFDF|A2d2 d2cB|AFDF AFDF|"A"G2E2 E2FG|
"D"AFDF AFDF|A2d2 d2de|"G"fafd "A"egec|"D"d2d2 d4:|
|:de|"D"fdfd fagf|edcd efge|fdfd fagf|"A"edcB A2de|
"D"fdfd fagf|edcd efge|"G"fafd "A"egec|"D"d2d2 d4:|
